resources/svg/plug-o.svg

<svg viewBox="0 0 15 15" fill="none" xmlns="http://www.w3.org/2000/svg" fill="currentColor"><path d="M6.5 11.5V15m2-3.5V15m-4-15v4.5m6-4.5v4.5m-8 0h10v3h-1v2a2 2 0 01-2 2h-4a2 2 0 01-2-2v-2h-1v-3z" stroke="currentColor"/></svg>

<svg width="15" height="15" viewBox="0 0 15 15" fill="none" xmlns="http://www.w3.org/2000/svg">
<path d="M6.5 11.5V15M8.5 11.5V15M4.5 0V4.5M10.5 0V4.5M2.5 4.5H12.5V7.5H11.5V9.5C11.5 10.6046 10.6046 11.5 9.5 11.5H5.5C4.39543 11.5 3.5 10.6046 3.5 9.5V7.5H2.5V4.5Z" stroke="black"/>
</svg>
